brandFactory_export/1.Light/Portabilidad_1Light (1).svg

<?xml version="1.0" encoding="UTF-8"?>
<svg width="24px" height="24px" viewBox="0 0 24 24" version="1.1" xmlns="http://www.w3.org/2000/svg" xmlns:xlink="http://www.w3.org/1999/xlink">
    <title>1.Light/Portabilidad_1Light (1)</title>
    <g id="Symbols" stroke="none" stroke-width="1" fill="none" fill-rule="evenodd">
        <g id="1.Light/Portabilidad_1Light-(1)" fill="#5CB615" fill-rule="nonzero">
            <path d="M10.5176471,1.01008403 C13.8789916,1.01008403 16.4840336,1.88067227 18.2588235,3.59831933 C20.0299935,5.31131222 20.9620705,7.85718264 21.0311487,11.1672015 L21.0352941,11.5680672 L21.0352941,11.5680672 C21.0352941,12.4262627 20.9790224,13.2439425 20.866479,14.0045294 C20.9152087,13.9655445 20.9672885,13.9184258 21.0218487,13.8638655 C21.3109244,13.5747899 21.6739496,13.1478992 22.0268908,12.7344538 C22.3831933,12.3142857 22.7529412,11.8806723 23.0588235,11.5747899 C23.189916,11.4436975 23.4016807,11.4436975 23.5327731,11.5747899 C23.6638655,11.7058824 23.6638655,11.9176471 23.5327731,12.0487395 C23.2470588,12.3344538 22.887395,12.7579832 22.5378151,13.1680672 C22.1781513,13.5915966 21.805042,14.0285714 21.4957983,14.3378151 C21.1697479,14.6705882 20.8302521,14.8352941 20.4907563,14.8352941 C20.1579832,14.8352941 19.8252101,14.6739496 19.502521,14.3512605 C19.2369748,14.0857143 18.7294118,13.497479 17.892437,12.5260504 L17.4655462,12.0319328 C17.3445378,11.8907563 17.3613445,11.6789916 17.4991597,11.5579832 C17.6403361,11.4369748 17.8521008,11.4537815 17.9731092,11.5915966 L18.4,12.0890756 C19.2,13.0168067 19.7277311,13.6319328 19.9731092,13.8773109 C20.0454276,13.9496293 20.1135106,14.0083004 20.1790091,14.0533022 L20.1243697,14.3781513 C20.2823529,13.5210084 20.3630252,12.5764706 20.3630252,11.5680672 C20.3630252,8.25042017 19.4991597,5.73277311 17.7915966,4.08235294 C16.1478992,2.48907563 13.697479,1.68235294 10.5176471,1.68235294 C7.33781513,1.68235294 4.88739496,2.48907563 3.24369748,4.08235294 C1.53613445,5.72941176 0.672268908,8.25042017 0.672268908,11.5680672 C0.672268908,14.8857143 1.53613445,17.4033613 3.24369748,19.0537815 C4.8907563,20.6470588 7.33781513,21.4537815 10.5176471,21.4537815 C12.4605042,21.4537815 14.1445378,21.1512605 15.5226891,20.5529412 C15.6941176,20.4789916 15.892437,20.5563025 15.9663866,20.7277311 C16.0403361,20.8991597 15.9630252,21.097479 15.7915966,21.1714286 C14.3294118,21.8033613 12.5546218,22.1260504 10.5176471,22.1260504 C7.15630252,22.1260504 4.5512605,21.2554622 2.77647059,19.5378151 C0.934453781,17.7563025 -3.69784203e-11,15.0739496 -3.69784203e-11,11.5680672 C-3.69784203e-11,8.06218487 0.934453781,5.37983193 2.77647059,3.59831933 C4.5512605,1.88067227 7.15630252,1.01008403 10.5176471,1.01008403 Z M12.9983193,4.34117647 C13.7042017,4.34117647 14.1176471,4.62352941 14.3428571,4.85882353 C14.6453782,5.17815126 14.8033613,5.62184874 14.8033613,6.14621849 L14.8033613,6.14621849 L14.8033613,16.3478992 C14.8033613,16.8722689 14.6420168,17.3159664 14.3428571,17.6352941 C14.1210084,17.8739496 13.7042017,18.1563025 12.9983193,18.1563025 L12.9983193,18.1563025 L7.36806723,18.1563025 C6.66218487,18.1563025 6.2487395,17.8739496 6.02352941,17.6352941 C5.7210084,17.3159664 5.56302521,16.8722689 5.56302521,16.3478992 L5.56302521,16.3478992 L5.56302521,7.66218487 C5.56638655,7.48739496 5.63361345,7.31596639 5.75798319,7.19159664 L5.75798319,7.19159664 L8.36638655,4.54285714 C8.49411765,4.41512605 8.66554622,4.34117647 8.84705882,4.34117647 L8.84705882,4.34117647 Z M12.9983193,5.01344538 L8.84369748,5.01344538 L6.23529412,7.66218487 L6.23529412,16.3512605 C6.23529412,17.0403361 6.59495798,17.487395 7.36806723,17.487395 L7.36806723,17.487395 L12.9983193,17.487395 C13.7714286,17.487395 14.1310924,17.0403361 14.1310924,16.3512605 L14.1310924,16.3512605 L14.1310924,6.14957983 C14.1310924,5.4605042 13.7714286,5.01344538 12.9983193,5.01344538 L12.9983193,5.01344538 Z M12.7831933,9.56806723 C12.9680672,9.56806723 13.1193277,9.71932773 13.1193277,9.90420168 L13.1193277,15.8369748 C13.1193277,16.0218487 12.9680672,16.1731092 12.7831933,16.1731092 L7.5394958,16.1731092 C7.35462185,16.1731092 7.20336134,16.0218487 7.20336134,15.8369748 L7.20336134,9.90420168 C7.20336134,9.71932773 7.35462185,9.56806723 7.5394958,9.56806723 L12.7831933,9.56806723 Z M8.944,14.210084 L7.875,14.210084 L7.87563025,15.5008403 L8.944,15.500084 L8.944,14.210084 Z M10.692,14.210084 L9.616,14.210084 L9.616,15.500084 L10.692,15.500084 L10.692,14.210084 Z M12.447,14.210084 L11.364,14.210084 L11.364,15.500084 L12.4470588,15.5008403 L12.447,14.210084 Z M7.875,12.236084 L7.875,13.537084 L12.447,13.537084 L12.447,12.236084 L7.875,12.236084 Z M8.944,10.240084 L7.87563025,10.2403361 L7.875,11.564084 L8.944,11.564084 L8.944,10.240084 Z M10.692,10.240084 L9.616,10.240084 L9.616,11.564084 L10.692,11.564084 L10.692,10.240084 Z M12.4470588,10.2403361 L11.364,10.240084 L11.364,11.564084 L12.447,11.564084 L12.4470588,10.2403361 Z" id="Portabilidad_1Light-(1)"></path>
        </g>
    </g>
</svg>

<svg width="24" height="24" viewBox="0 0 24 24" xmlns="http://www.w3.org/2000/svg"><path d="M10.518 1.01c3.361 0 5.966.87 7.74 2.588 1.772 1.713 2.704 4.26 2.773 7.57l.004.4c0 .858-.056 1.676-.169 2.437.05-.04.101-.087.156-.141.289-.29.652-.716 1.005-1.13.356-.42.726-.853 1.032-1.16a.335.335 0 11.474.475c-.286.285-.646.709-.995 1.12-.36.423-.733.86-1.042 1.169-.326.333-.666.497-1.005.497-.333 0-.666-.161-.988-.484-.266-.265-.774-.854-1.61-1.825l-.427-.494a.339.339 0 01.033-.474.339.339 0 01.474.034l.427.497c.8.928 1.328 1.543 1.573 1.788.072.073.14.131.206.176l-.055.325c.158-.857.239-1.802.239-2.81 0-3.318-.864-5.835-2.571-7.486-1.644-1.593-4.095-2.4-7.274-2.4-3.18 0-5.63.807-7.274 2.4C1.536 5.73.672 8.25.672 11.568c0 3.318.864 5.835 2.572 7.486 1.647 1.593 4.094 2.4 7.274 2.4 1.943 0 3.627-.303 5.005-.901a.337.337 0 11.269.618c-1.463.632-3.237.955-5.274.955-3.362 0-5.967-.87-7.742-2.588C.934 17.756 0 15.074 0 11.568c0-3.506.934-6.188 2.776-7.97 1.775-1.717 4.38-2.588 7.742-2.588zm2.48 3.331c.706 0 1.12.283 1.345.518.302.32.46.763.46 1.287v10.202c0 .524-.161.968-.46 1.287-.222.239-.639.521-1.345.521h-5.63c-.706 0-1.12-.282-1.344-.52-.303-.32-.461-.764-.461-1.288V7.662a.684.684 0 01.195-.47l2.608-2.65a.68.68 0 01.481-.2zm0 .672H8.844l-2.609 2.65v8.688c0 .69.36 1.136 1.133 1.136h5.63c.773 0 1.133-.447 1.133-1.136V6.15c0-.69-.36-1.137-1.133-1.137zm-.215 4.555c.185 0 .336.151.336.336v5.933a.337.337 0 01-.336.336H7.54a.337.337 0 01-.336-.336V9.904c0-.185.152-.336.336-.336h5.244zM8.944 14.21H7.875v1.29h1.069v-1.29zm1.748 0H9.616v1.29h1.076v-1.29zm1.755 0h-1.083v1.29h1.083v-1.29zm-4.572-1.974v1.301h4.572v-1.3H7.875zm1.069-1.996H7.876l-.001 1.324h1.069V10.24zm1.748 0H9.616v1.324h1.076V10.24zm1.755 0h-1.083v1.324h1.083V10.24z" fill="#5CB615" fill-rule="nonzero"/></svg>
